svg/nature/mickeymouse_line.svg

<?xml version="1.0" encoding="UTF-8"?>
<svg width="24px" height="24px" viewBox="0 0 24 24" version="1.1" xmlns="http://www.w3.org/2000/svg" xmlns:xlink="http://www.w3.org/1999/xlink">
    <title>mikeymouse_line</title>
    <g id="Icon" stroke="none" stroke-width="1" fill="none" fill-rule="evenodd">
        <g id="Nature" transform="translate(-432.000000, -98.000000)">
            <g id="mikeymouse_line" transform="translate(432.000000, 98.000000)">
                <path d="M24,0 L24,24 L0,24 L0,0 L24,0 Z M12.5935,23.2578 L12.5819,23.2595 L12.5109,23.295 L12.4919,23.2987 L12.4767,23.295 L12.4057,23.2595 C12.3958,23.2564 12.387,23.259 12.3821,23.2649 L12.378,23.2758 L12.3609,23.7031 L12.3659,23.7235 L12.3769,23.7357 L12.4805,23.8097 L12.4953,23.8136 L12.5071,23.8097 L12.6107,23.7357 L12.6233,23.7197 L12.6267,23.7031 L12.6096,23.2758 C12.6076,23.2657 12.601,23.2593 12.5935,23.2578 Z M12.8584,23.1453 L12.8445,23.1473 L12.6598,23.2397 L12.6499,23.2499 L12.6472,23.2611 L12.6651,23.6906 L12.6699,23.7034 L12.6784,23.7105 L12.8793,23.8032 C12.8914,23.8069 12.9022,23.803 12.9078,23.7952 L12.9118,23.7812 L12.8777,23.1665 C12.8753,23.1546 12.8674,23.147 12.8584,23.1453 Z M12.143,23.1473 C12.1332,23.1424 12.1222,23.1453 12.1156,23.1526 L12.1099,23.1665 L12.0758,23.7812 C12.0751,23.7927 12.0828,23.8019 12.0926,23.8046 L12.1083,23.8032 L12.3092,23.7105 L12.3186,23.7024 L12.3225,23.6906 L12.3404,23.2611 L12.3372,23.2485 L12.3278,23.2397 L12.143,23.1473 Z" id="MingCute" fill-rule="nonzero"></path>
                <path d="M17.5,3 C19.9853,3 22,5.01472 22,7.5 C22,9.58309 20.5846,11.3356 18.6631,11.8483 C18.8818,12.5262 19,13.2493 19,14 C19,17.866 15.866,21 12,21 C8.13401,21 5,17.866 5,14 C5,13.2493 5.11818,12.5262 5.33694,11.8483 C3.4154,11.3356 2,9.58309 2,7.5 C2,5.01472 4.01472,3 6.5,3 C8.84153,3 10.7654,4.78839 10.9801,7.07377 C11.313,7.02517 11.6536,7 12,7 C12.3464,7 12.687,7.02517 13.0199,7.07377 C13.2346,4.78839 15.1585,3 17.5,3 Z M12,9 C9.23858,9 7,11.2386 7,14 C7,16.7614 9.23858,19 12,19 C14.7614,19 17,16.7614 17,14 C17,11.2386 14.7614,9 12,9 Z M6.5,5 C5.11929,5 4,6.11929 4,7.5 C4,8.8006 4.99317,9.86923 6.26248,9.98886 C6.95452,9.00081 7.89529,8.19973 8.99391,7.67653 C8.99794,7.61834 9,7.55948 9,7.5 C9,6.11929 7.88071,5 6.5,5 Z M17.5,5 C16.1193,5 15,6.11929 15,7.5 C15,7.55948 15.0021,7.61834 15.0061,7.67653 C16.1047,8.19973 17.0455,9.00081 17.7375,9.98886 C19.0068,9.86923 20,8.8006 20,7.5 C20,6.11929 18.8807,5 17.5,5 Z" id="形状" fill="#09244B"></path>
            </g>
        </g>
    </g>
</svg>

<svg xmlns="http://www.w3.org/2000/svg" width="24" height="24"><g fill="none" fill-rule="evenodd"><path d="M24 0v24H0V0h24ZM12.594 23.258l-.012.002-.071.035-.02.004-.014-.004-.071-.036c-.01-.003-.019 0-.024.006l-.004.01-.017.428.005.02.01.013.104.074.015.004.012-.004.104-.074.012-.016.004-.017-.017-.427c-.002-.01-.009-.017-.016-.018Zm.264-.113-.014.002-.184.093-.01.01-.003.011.018.43.005.012.008.008.201.092c.012.004.023 0 .029-.008l.004-.014-.034-.614c-.003-.012-.01-.02-.02-.022Zm-.715.002a.023.023 0 0 0-.027.006l-.006.014-.034.614c0 .012.007.02.017.024l.015-.002.201-.093.01-.008.003-.011.018-.43-.003-.012-.01-.01-.184-.092Z"/><path fill="#09244B" d="M17.5 3a4.5 4.5 0 0 1 1.163 8.848 7 7 0 1 1-13.326 0A4.502 4.502 0 0 1 6.5 3a4.5 4.5 0 0 1 4.48 4.074 7.058 7.058 0 0 1 2.04 0A4.5 4.5 0 0 1 17.5 3ZM12 9a5 5 0 1 0 0 10 5 5 0 0 0 0-10ZM6.5 5a2.5 2.5 0 0 0-.238 4.989 7.03 7.03 0 0 1 2.732-2.312A2.5 2.5 0 0 0 6.5 5Zm11 0a2.5 2.5 0 0 0-2.494 2.677 7.03 7.03 0 0 1 2.732 2.312A2.5 2.5 0 0 0 17.5 5Z"/></g></svg>
